openmetadata-ui/src/main/resources/ui/src/assets/svg/table-profile.svg

<svg width="16" height="17" viewBox="0 0 16 17" fill="none" xmlns="http://www.w3.org/2000/svg">
<g clip-path="url(#clip0_16758_23315)">
<mask id="path-1-outside-1_16758_23315" maskUnits="userSpaceOnUse" x="-0.25" y="1.80078" width="14" height="14" fill="black">
<rect fill="white" x="-0.25" y="1.80078" width="14" height="14"/>
<path fill-rule="evenodd" clip-rule="evenodd" d="M13.25 12.5793C13.1301 12.6418 13.0079 12.7007 12.8838 12.7557V14.0273C12.8838 14.468 12.5673 14.8266 12.1782 14.8266H9.20535V13.228C9.08208 13.2081 8.95998 13.1847 8.83914 13.1579V14.8266H6.95205H6.64281H5.16074V12.2349H6.6659C6.47202 12.1065 6.28541 11.968 6.10685 11.8201H5.16074V10.8553C5.03079 10.692 4.90854 10.5223 4.79453 10.3467V11.8201H1.11621V9.22848H4.21423C4.15969 9.09243 4.10963 8.9541 4.06421 8.81368H1.11621V6.22206H3.77636C3.78891 6.08246 3.80587 5.94414 3.82711 5.80723H1.11621V3.69952C1.11621 3.43269 1.30789 3.21558 1.54346 3.21558H3.48992H3.79916H4.83441C4.92909 3.07327 5.02924 2.9349 5.13454 2.80078H3.79916H3.48992H1.54346C1.10593 2.80078 0.75 3.20397 0.75 3.69952V14.0273C0.75 14.6968 1.23081 15.2414 1.8218 15.2414H6.64281H6.95205H12.1782C12.7692 15.2414 13.25 14.6967 13.25 14.0273L13.25 12.5793ZM1.8218 14.8266H4.79453V12.2349H1.11621V14.0273C1.11621 14.468 1.43274 14.8266 1.8218 14.8266Z"/>
</mask>
<path fill-rule="evenodd" clip-rule="evenodd" d="M13.25 12.5793C13.1301 12.6418 13.0079 12.7007 12.8838 12.7557V14.0273C12.8838 14.468 12.5673 14.8266 12.1782 14.8266H9.20535V13.228C9.08208 13.2081 8.95998 13.1847 8.83914 13.1579V14.8266H6.95205H6.64281H5.16074V12.2349H6.6659C6.47202 12.1065 6.28541 11.968 6.10685 11.8201H5.16074V10.8553C5.03079 10.692 4.90854 10.5223 4.79453 10.3467V11.8201H1.11621V9.22848H4.21423C4.15969 9.09243 4.10963 8.9541 4.06421 8.81368H1.11621V6.22206H3.77636C3.78891 6.08246 3.80587 5.94414 3.82711 5.80723H1.11621V3.69952C1.11621 3.43269 1.30789 3.21558 1.54346 3.21558H3.48992H3.79916H4.83441C4.92909 3.07327 5.02924 2.9349 5.13454 2.80078H3.79916H3.48992H1.54346C1.10593 2.80078 0.75 3.20397 0.75 3.69952V14.0273C0.75 14.6968 1.23081 15.2414 1.8218 15.2414H6.64281H6.95205H12.1782C12.7692 15.2414 13.25 14.6967 13.25 14.0273L13.25 12.5793ZM1.8218 14.8266H4.79453V12.2349H1.11621V14.0273C1.11621 14.468 1.43274 14.8266 1.8218 14.8266Z" fill="currentColor"/>
<path d="M13.25 12.5793L13.55 12.5793L13.55 12.0846L13.1113 12.3132L13.25 12.5793ZM12.8838 12.7557L12.7621 12.4815L12.5838 12.5607V12.7557H12.8838ZM9.20535 14.8266H8.90535V15.1266H9.20535V14.8266ZM9.20535 13.228H9.50535V12.9726L9.25319 12.9318L9.20535 13.228ZM8.83914 13.1579L8.90396 12.865L8.53913 12.7843V13.1579H8.83914ZM8.83914 14.8266V15.1266H9.13914V14.8266H8.83914ZM5.16074 14.8266H4.86074V15.1266H5.16074V14.8266ZM5.16074 12.2349V11.9349H4.86074V12.2349H5.16074ZM6.6659 12.2349V12.5349H7.66232L6.83154 11.9848L6.6659 12.2349ZM6.10685 11.8201L6.29819 11.5891L6.21494 11.5201H6.10685V11.8201ZM5.16074 11.8201H4.86074V12.1201H5.16074V11.8201ZM5.16074 10.8553H5.46074V10.7505L5.3955 10.6685L5.16074 10.8553ZM4.79453 10.3467L5.04614 10.1833L4.49453 9.33384V10.3467H4.79453ZM4.79453 11.8201V12.1201H5.09453V11.8201H4.79453ZM1.11621 11.8201H0.816211V12.1201H1.11621V11.8201ZM1.11621 9.22848V8.92848H0.816211V9.22848H1.11621ZM4.21423 9.22848V9.52848H4.65767L4.49269 9.11687L4.21423 9.22848ZM4.06421 8.81368L4.34965 8.72136L4.28248 8.51368H4.06421V8.81368ZM1.11621 8.81368H0.816211V9.11368H1.11621V8.81368ZM1.11621 6.22206V5.92206H0.816211V6.22206H1.11621ZM3.77636 6.22206V6.52206H4.05061L4.07516 6.24892L3.77636 6.22206ZM3.82711 5.80723L4.12356 5.85321L4.17722 5.50723H3.82711V5.80723ZM1.11621 5.80723H0.816211V6.10723H1.11621V5.80723ZM4.83441 3.21558V3.51558H4.99515L5.08418 3.38176L4.83441 3.21558ZM5.13454 2.80078L5.3705 2.98604L5.75149 2.50078H5.13454V2.80078ZM13.25 14.0273L12.95 14.0273V14.0273H13.25ZM4.79453 14.8266V15.1266H5.09453V14.8266H4.79453ZM4.79453 12.2349H5.09453V11.9349H4.79453V12.2349ZM1.11621 12.2349V11.9349H0.816211V12.2349H1.11621ZM13.1113 12.3132C12.997 12.3729 12.8805 12.429 12.7621 12.4815L13.0055 13.03C13.1354 12.9723 13.2632 12.9107 13.3886 12.8453L13.1113 12.3132ZM12.5838 12.7557V14.0273H13.1838V12.7557H12.5838ZM12.5838 14.0273C12.5838 14.3386 12.3675 14.5266 12.1782 14.5266V15.1266C12.767 15.1266 13.1838 14.5975 13.1838 14.0273H12.5838ZM12.1782 14.5266H9.20535V15.1266H12.1782V14.5266ZM9.50535 14.8266V13.228H8.90535V14.8266H9.50535ZM9.25319 12.9318C9.13563 12.9128 9.01919 12.8905 8.90396 12.865L8.77431 13.4508C8.90076 13.4788 9.02853 13.5033 9.1575 13.5241L9.25319 12.9318ZM8.53913 13.1579V14.8266H9.13914V13.1579H8.53913ZM8.83914 14.5266H6.95205V15.1266H8.83914V14.5266ZM6.95205 14.5266H6.64281V15.1266H6.95205V14.5266ZM6.64281 14.5266H5.16074V15.1266H6.64281V14.5266ZM5.46074 14.8266V12.2349H4.86074V14.8266H5.46074ZM5.16074 12.5349H6.6659V11.9349H5.16074V12.5349ZM6.83154 11.9848C6.64658 11.8623 6.46856 11.7302 6.29819 11.5891L5.9155 12.0512C6.10227 12.2058 6.29745 12.3507 6.50027 12.485L6.83154 11.9848ZM6.10685 11.5201H5.16074V12.1201H6.10685V11.5201ZM5.46074 11.8201V10.8553H4.86074V11.8201H5.46074ZM5.3955 10.6685C5.27152 10.5127 5.15489 10.3508 5.04614 10.1833L4.54292 10.5101C4.66219 10.6938 4.79006 10.8713 4.92598 11.0421L5.3955 10.6685ZM4.49453 10.3467V11.8201H5.09453V10.3467H4.49453ZM4.79453 11.5201H1.11621V12.1201H4.79453V11.5201ZM1.41621 11.8201V9.22848H0.816211V11.8201H1.41621ZM1.11621 9.52848H4.21423V8.92848H1.11621V9.52848ZM4.49269 9.11687C4.44069 8.98714 4.39296 8.85524 4.34965 8.72136L3.77877 8.906C3.8263 9.05295 3.87869 9.19772 3.93576 9.34009L4.49269 9.11687ZM4.06421 8.51368H1.11621V9.11368H4.06421V8.51368ZM1.41621 8.81368V6.22206H0.816211V8.81368H1.41621ZM1.11621 6.52206H3.77636V5.92206H1.11621V6.52206ZM4.07516 6.24892C4.08713 6.11573 4.10331 5.98379 4.12356 5.85321L3.53065 5.76125C3.50843 5.9045 3.49069 6.0492 3.47757 6.1952L4.07516 6.24892ZM3.82711 5.50723H1.11621V6.10723H3.82711V5.50723ZM1.41621 5.80723V3.69952H0.816211V5.80723H1.41621ZM1.41621 3.69952C1.41621 3.63765 1.43845 3.58768 1.46639 3.55604C1.49387 3.52491 1.52184 3.51558 1.54346 3.51558V2.91558C1.10817 2.91558 0.816211 3.30322 0.816211 3.69952H1.41621ZM1.54346 3.51558H3.48992V2.91558H1.54346V3.51558ZM3.48992 3.51558H3.79916V2.91558H3.48992V3.51558ZM3.79916 3.51558H4.83441V2.91558H3.79916V3.51558ZM5.08418 3.38176C5.1745 3.246 5.27004 3.114 5.3705 2.98604L4.89858 2.61552C4.78843 2.7558 4.68368 2.90054 4.58464 3.04941L5.08418 3.38176ZM5.13454 2.50078H3.79916V3.10078H5.13454V2.50078ZM3.79916 2.50078H3.48992V3.10078H3.79916V2.50078ZM3.48992 2.50078H1.54346V3.10078H3.48992V2.50078ZM1.54346 2.50078C0.906207 2.50078 0.45 3.07451 0.45 3.69952H1.05C1.05 3.33343 1.30566 3.10078 1.54346 3.10078V2.50078ZM0.45 3.69952V14.0273H1.05V3.69952H0.45ZM0.45 14.0273C0.45 14.8262 1.03109 15.5414 1.8218 15.5414V14.9414C1.43053 14.9414 1.05 14.5673 1.05 14.0273H0.45ZM1.8218 15.5414H6.64281V14.9414H1.8218V15.5414ZM6.64281 15.5414H6.95205V14.9414H6.64281V15.5414ZM6.95205 15.5414H12.1782V14.9414H6.95205V15.5414ZM12.1782 15.5414C12.9689 15.5414 13.55 14.8262 13.55 14.0273H12.95C12.95 14.5673 12.5694 14.9414 12.1782 14.9414V15.5414ZM13.55 14.0273L13.55 12.5793L12.95 12.5793L12.95 14.0273L13.55 14.0273ZM4.79453 14.5266H1.8218V15.1266H4.79453V14.5266ZM4.49453 12.2349V14.8266H5.09453V12.2349H4.49453ZM1.11621 12.5349H4.79453V11.9349H1.11621V12.5349ZM1.41621 14.0273V12.2349H0.816211V14.0273H1.41621ZM1.8218 14.5266C1.63247 14.5266 1.41621 14.3386 1.41621 14.0273H0.816211C0.816211 14.5975 1.23301 15.1266 1.8218 15.1266V14.5266Z" fill="currentColor" mask="url(#path-1-outside-1_16758_23315)"/>
<circle cx="10.25" cy="6.8125" r="5" stroke="currentColor"/>
<g clip-path="url(#clip1_16758_23315)">
<path d="M10.2483 6.43017C10.97 6.43017 11.5571 5.84302 11.5571 5.12133C11.5571 4.39965 10.97 3.8125 10.2483 3.8125C9.5266 3.8125 8.93945 4.39965 8.93945 5.12133C8.93945 5.84302 9.5266 6.43017 10.2483 6.43017ZM10.2483 4.12112C10.7998 4.12112 11.2485 4.56982 11.2485 5.12133C11.2485 5.67285 10.7998 6.12154 10.2483 6.12154C9.69678 6.12154 9.24808 5.67285 9.24808 5.12133C9.24808 4.56982 9.69678 4.12112 10.2483 4.12112Z" fill="currentColor" stroke="currentColor" stroke-width="0.5"/>
<path d="M11.6147 7.0861C11.4685 7.04754 11.3076 7.06614 11.1734 7.13713C10.8847 7.28981 10.5735 7.36724 10.2485 7.36724C9.92351 7.36724 9.61233 7.28981 9.32361 7.13713C9.1894 7.06616 9.02854 7.04756 8.88234 7.08612C8.23634 7.2564 7.78516 7.84239 7.78516 8.51114V8.99795C7.78516 9.44681 8.15034 9.812 8.59918 9.812H11.8978C12.3467 9.812 12.7118 9.44681 12.7118 8.99795V8.51112C12.7119 7.84237 12.2607 7.25638 11.6147 7.0861ZM12.4032 8.99793C12.4032 9.27662 12.1765 9.50335 11.8978 9.50335H8.5992C8.32052 9.50335 8.0938 9.27662 8.0938 8.99793V8.51112C8.0938 7.98239 8.45043 7.51912 8.96101 7.38452C8.98566 7.37802 9.01116 7.37483 9.03671 7.37483C9.08603 7.37483 9.13551 7.38676 9.17936 7.40993C9.513 7.58638 9.87271 7.67584 10.2485 7.67584C10.6244 7.67584 10.9841 7.58638 11.3177 7.40993C11.3842 7.37475 11.4638 7.36547 11.536 7.38452C12.0466 7.51912 12.4032 7.98239 12.4032 8.51112V8.99793Z" fill="currentColor" stroke="currentColor" stroke-width="0.5"/>
</g>
</g>
<defs>
<clipPath id="clip0_16758_23315">
<rect width="16" height="15.9239" fill="white" transform="translate(0 0.5625)"/>
</clipPath>
<clipPath id="clip1_16758_23315">
<rect width="7" height="7" fill="white" transform="translate(6.75 3.3125)"/>
</clipPath>
</defs>
</svg>

<svg xmlns="http://www.w3.org/2000/svg" width="16" height="17" fill="none"><g clip-path="url(#a)"><mask id="b" width="14" height="14" x="-.25" y="1.801" fill="#000" maskUnits="userSpaceOnUse"><path fill="#fff" d="M-.25 1.801h14v14h-14z"/><path fill-rule="evenodd" d="M13.25 12.58a6.42 6.42 0 0 1-.366.176v1.271c0 .441-.317.8-.706.8H9.205v-1.599a6.408 6.408 0 0 1-.366-.07v1.669H5.161v-2.592h1.505a6.521 6.521 0 0 1-.56-.415h-.945v-.965a6.51 6.51 0 0 1-.366-.508v1.473H1.116V9.228h3.098a6.447 6.447 0 0 1-.15-.414H1.116V6.222h2.66c.013-.14.03-.278.051-.415h-2.71V3.7c0-.267.19-.484.426-.484H4.834a6.52 6.52 0 0 1 .3-.415H1.544c-.437 0-.793.403-.793.899v10.327c0 .67.48 1.214 1.072 1.214h10.356c.591 0 1.072-.544 1.072-1.214V12.58ZM1.822 14.826h2.973v-2.592H1.116v1.792c0 .441.317.8.706.8Z" clip-rule="evenodd"/></mask><path fill="currentColor" fill-rule="evenodd" d="M13.25 12.58a6.42 6.42 0 0 1-.366.176v1.271c0 .441-.317.8-.706.8H9.205v-1.599a6.408 6.408 0 0 1-.366-.07v1.669H5.161v-2.592h1.505a6.521 6.521 0 0 1-.56-.415h-.945v-.965a6.51 6.51 0 0 1-.366-.508v1.473H1.116V9.228h3.098a6.447 6.447 0 0 1-.15-.414H1.116V6.222h2.66c.013-.14.03-.278.051-.415h-2.71V3.7c0-.267.19-.484.426-.484H4.834a6.52 6.52 0 0 1 .3-.415H1.544c-.437 0-.793.403-.793.899v10.327c0 .67.48 1.214 1.072 1.214h10.356c.591 0 1.072-.544 1.072-1.214V12.58ZM1.822 14.826h2.973v-2.592H1.116v1.792c0 .441.317.8.706.8Z" clip-rule="evenodd"/><path fill="currentColor" d="M13.25 12.58h.3v-.495l-.439.228.139.266Zm-.366.176-.122-.274-.178.079v.195h.3Zm-3.679 2.07h-.3v.3h.3v-.3Zm0-1.598h.3v-.255l-.252-.041-.048.296Zm-.366-.07.065-.293-.365-.08v.373h.3Zm0 1.669v.3h.3v-.3h-.3Zm-3.678 0h-.3v.3h.3v-.3Zm0-2.592v-.3h-.3v.3h.3Zm1.505 0v.3h.996l-.83-.55-.166.25Zm-.56-.415.192-.23-.083-.07h-.108v.3Zm-.945 0h-.3v.3h.3v-.3Zm0-.965h.3v-.104l-.066-.082-.234.186Zm-.366-.508.251-.164-.551-.85v1.014h.3Zm0 1.473v.3h.3v-.3h-.3Zm-3.679 0h-.3v.3h.3v-.3Zm0-2.592v-.3h-.3v.3h.3Zm3.098 0v.3h.444l-.165-.411-.279.111Zm-.15-.414.286-.093-.068-.207h-.218v.3Zm-2.948 0h-.3v.3h.3v-.3Zm0-2.592v-.3h-.3v.3h.3Zm2.66 0v.3h.275l.024-.273-.299-.027Zm.051-.415.297.046.053-.346h-.35v.3Zm-2.71 0h-.3v.3h.3v-.3Zm3.717-2.591v.3h.161l.09-.134-.25-.166Zm.3-.415.236.185.381-.485h-.616v.3Zm8.116 11.226h-.3.3Zm-8.455.8v.3h.3v-.3h-.3Zm0-2.592h.3v-.3h-.3v.3Zm-3.679 0v-.3h-.3v.3h.3Zm11.995.078c-.114.06-.23.116-.349.168l.243.549c.13-.058.258-.12.384-.185l-.278-.532Zm-.527.443v1.271h.6v-1.271h-.6Zm0 1.271c0 .312-.216.5-.406.5v.6c.589 0 1.006-.53 1.006-1.1h-.6Zm-.406.5H9.205v.6h2.973v-.6Zm-2.673.3v-1.599h-.6v1.599h.6Zm-.252-1.895a6.179 6.179 0 0 1-.349-.067l-.13.586c.127.028.255.052.384.073l.095-.592Zm-.714.226v1.669h.6v-1.67h-.6Zm.3 1.369H6.952v.6H8.84v-.6Zm-1.887 0h-.31v.6h.31v-.6Zm-.31 0H5.162v.6h1.482v-.6Zm-1.181.3v-2.592h-.6v2.592h.6Zm-.3-2.292h1.505v-.6H5.16v.6Zm1.67-.55a6.226 6.226 0 0 1-.533-.396l-.383.462c.187.155.382.3.585.434l.332-.5Zm-.724-.465H5.16v.6h.946v-.6Zm-.646.3v-.965h-.6v.965h.6Zm-.066-1.152a6.211 6.211 0 0 1-.349-.485l-.503.327c.12.184.247.361.383.532l.47-.373Zm-.9-.321v1.473h.6v-1.473h-.6Zm.3 1.173H1.116v.6h3.679v-.6Zm-3.379.3V9.228h-.6v2.592h.6Zm-.3-2.292h3.098v-.6H1.116v.6Zm3.377-.411c-.052-.13-.1-.262-.143-.396l-.571.185c.047.147.1.292.157.434l.557-.223Zm-.429-.603H1.116v.6h2.948v-.6Zm-2.648.3V6.222h-.6v2.592h.6Zm-.3-2.292h2.66v-.6h-2.66v.6Zm2.96-.273c.011-.133.027-.265.048-.396l-.593-.092c-.023.143-.04.288-.053.434l.597.054Zm-.249-.742h-2.71v.6h2.71v-.6Zm-2.41.3V3.7h-.6v2.107h.6Zm0-2.107c0-.062.021-.112.05-.144.027-.031.055-.04.076-.04v-.6c-.435 0-.727.387-.727.784h.6Zm.126-.184H3.49v-.6H1.543v.6Zm1.947 0h.31v-.6h-.31v.6Zm.31 0h1.034v-.6H3.8v.6Zm1.284-.134c.09-.136.186-.268.287-.396l-.472-.37c-.11.14-.215.285-.314.433l.5.333Zm.05-.881H3.8v.6h1.336v-.6ZM3.8 2.5h-.31v.6h.31v-.6Zm-.31 0H1.544v.6H3.49v-.6Zm-1.946 0C.906 2.5.45 3.075.45 3.7h.6c0-.367.256-.6.493-.6v-.6ZM.45 3.7v10.327h.6V3.7h-.6Zm0 10.327c0 .8.581 1.514 1.372 1.514v-.6c-.391 0-.772-.374-.772-.914h-.6Zm1.372 1.514h4.82v-.6h-4.82v.6Zm4.82 0h.31v-.6h-.31v.6Zm.31 0h5.226v-.6H6.952v.6Zm5.226 0c.79 0 1.372-.715 1.372-1.514h-.6c0 .54-.38.914-.772.914v.6Zm1.372-1.514V12.58h-.6v1.448h.6Zm-8.755.5H1.822v.6h2.973v-.6Zm-.3-2.292v2.592h.6v-2.592h-.6Zm-3.379.3h3.679v-.6H1.116v.6Zm.3 1.492v-1.792h-.6v1.792h.6Zm.406.5c-.19 0-.406-.188-.406-.5h-.6c0 .57.417 1.1 1.006 1.1v-.6Z" mask="url(#b)"/><circle cx="10.25" cy="6.813" r="5" stroke="currentColor"/><g fill="currentColor" stroke="currentColor" stroke-width=".5" clip-path="url(#c)"><path d="M10.248 6.43a1.31 1.31 0 0 0 1.31-1.309 1.31 1.31 0 0 0-1.31-1.309 1.31 1.31 0 0 0-1.309 1.31 1.31 1.31 0 0 0 1.31 1.308Zm0-2.309a1.001 1.001 0 0 1 0 2 1.001 1.001 0 0 1 0-2ZM11.615 7.086a.618.618 0 0 0-.442.051c-.288.153-.6.23-.925.23-.324 0-.636-.077-.924-.23a.618.618 0 0 0-.442-.05A1.474 1.474 0 0 0 7.785 8.51v.487c0 .449.365.814.814.814h3.299a.815.815 0 0 0 .814-.814V8.51c0-.669-.451-1.255-1.097-1.425Zm.788 1.912a.506.506 0 0 1-.505.505H8.599a.506.506 0 0 1-.505-.505V8.51c0-.529.356-.992.867-1.126a.297.297 0 0 1 .218.025c.334.176.694.266 1.07.266.375 0 .735-.09 1.069-.266a.306.306 0 0 1 .218-.025c.51.134.867.597.867 1.126v.487Z"/></g></g><defs><clipPath id="a"><path fill="#fff" d="M0 .563h16v15.923H0z"/></clipPath><clipPath id="c"><path fill="#fff" d="M6.75 3.313h7v7h-7z"/></clipPath></defs></svg>
